X:6583
T:The British Grenadiers
O:england
M:4/4
C:
S:Seabright
N:as used for The Three Musketeers
A:Adderbury, etc.
R:Reel
P:A(AB2)5
K:G
I:speed 400
P:A
D2 | G2 D2 G2 A2 | B2 cB A2 Bc | d2 G2 G2 B2 | AGFE  D2 \
D2 | G2 D2 G2 A2 | B4    A2 Bc | d2 G2 BAGF  | G4    G2 ||\
P:B
Bc | d3 e  d2 c2 | B3 c  d2 d2 | e2 e2 dcBA  | G4    F2 \
D2 | G2 D2 G2 A2 | B4    A2 Bc | d2 G2 BAGF  | G4    G2 ||


